X:123
T:The Banks of the Scantic 
R:waltz
C: 2005, 2010 L.E. McCullough 
M:3/4
L:1/8
K:D
FG|: A3B AG | AF D2 AB | =c3A Bd | BA G2 BG |
A3B AG | AF DF ED | E3D EF | G4 FG | 
A3B AG | AF D2 AB | =c3A Bd | BA G2 BG | 
A3B AF | GF EG FE | D3D (3DDD |1 D4 FG :|2 D3A de |]
|: f3e ed | ec A2 GF | G3A BG | AF D2 DE | 
F3D FA | e2 dz zc | A3B AG | A3A de | f3e ed |
[1 g4 fe | dG Bd (3BAG | A4 FG | 
A3B AF | GF EG FE | D3D (3DDD | D3A de :|]
[2 g4 (3gfe | dG Bd (3BAG | A4 FG | 
A3D FA | =c2 Bz zG | A3B AG | A3A FG |
A3D FA | G2 F2 E2 | D3D (3DDD | D6 |] 

